icons/svg/road_shields/h_green_cshield_2_road_shield.svg

<?xml version="1.0" encoding="UTF-8" standalone="no"?>
<!-- Generator: Adobe Illustrator 16.0.4, SVG Export Plug-In . SVG Version: 6.00 Build 0)  -->

<svg
   xmlns:dc="http://purl.org/dc/elements/1.1/"
   xmlns:cc="http://creativecommons.org/ns#"
   xmlns:rdf="http://www.w3.org/1999/02/22-rdf-syntax-ns#"
   xmlns:svg="http://www.w3.org/2000/svg"
   xmlns="http://www.w3.org/2000/svg"
   xmlns:sodipodi="http://sodipodi.sourceforge.net/DTD/sodipodi-0.dtd"
   xmlns:inkscape="http://www.inkscape.org/namespaces/inkscape"
   version="1.1"
   id="Слой_1"
   x="0px"
   y="0px"
   width="24"
   height="30"
   viewBox="0 0 24 30"
   enable-background="new 0 0 17.143 17.17"
   xml:space="preserve"
   inkscape:version="0.91 r13725"
   sodipodi:docname="h_green_cshield_2_road_shield.svg"><metadata
     id="metadata13"><rdf:RDF><cc:Work
         rdf:about=""><dc:format>image/svg+xml</dc:format><dc:type
           rdf:resource="http://purl.org/dc/dcmitype/StillImage" /><dc:title></dc:title></cc:Work></rdf:RDF></metadata><defs
     id="defs11" /><sodipodi:namedview
     pagecolor="#ffffff"
     bordercolor="#666666"
     borderopacity="1"
     objecttolerance="10"
     gridtolerance="10"
     guidetolerance="10"
     inkscape:pageopacity="0"
     inkscape:pageshadow="2"
     inkscape:window-width="1920"
     inkscape:window-height="1006"
     id="namedview9"
     showgrid="false"
     inkscape:zoom="16.000001"
     inkscape:cx="11.730211"
     inkscape:cy="17.53387"
     inkscape:window-x="1920"
     inkscape:window-y="0"
     inkscape:window-maximized="1"
     inkscape:current-layer="Слой_1"
     showguides="false" /><path
     style="opacity:0.781;fill:#f1eae4;fill-opacity:1"
     d="m 11.95805,4.6738671 c -0.07038,0.00433 -0.140213,0.019221 -0.208304,0.044415 C 10.197315,5.2899142 8.5567978,5.596478 6.8589407,5.596478 5.2503652,5.596478 3.6933543,5.3220677 2.2140504,4.8071111 1.7552752,4.6480471 1.2804289,4.9679444 1.0842905,5.5682138 0.60975677,7.0218356 0.27911867,8.5766673 0.11799127,10.201455 c -0.0789876,1.162541 -0.0973908,1.289507 -0.1070452,2.154103 0,8.937854 5.23183993,16.235825 11.88056293,17.269169 0.07211,0.01119 0.144877,0.01119 0.216982,0 6.648726,-1.033344 11.880563,-8.331316 11.880563,-17.269169 -0.02435,-0.769243 -0.0437,-1.225661 -0.107045,-2.154103 -0.1611,-1.624839 -0.491773,-3.1796416 -0.9663,-4.6332412 -0.196138,-0.6002692 -0.670985,-0.9201664 -1.129759,-0.7611031 -1.479239,0.5149669 -3.03631,0.7893669 -4.644891,0.7893669 -1.697858,0 -3.338355,-0.3065621 -4.890805,-0.878196 -0.09525,-0.035189 -0.193758,-0.050162 -0.292204,-0.044415 z"
     id="path4160"
     inkscape:connector-curvature="0"
     sodipodi:nodetypes="ccsccccccccccscc" /><path
     style="fill:#006b54;fill-opacity:1"
     d="M 11.999997,6.0426416 C 10.36608,6.6442786 8.641228,6.965252 6.858938,6.965252 5.1704537,6.965252 3.5336841,6.6774668 1.9768125,6.1355082 1.5427185,7.4652528 1.2416245,8.8842381 1.092967,10.367 l -0.00289,0 -0.054969,0.81763 c -0.01253,0.29367 -0.043397,0.873259 -0.043397,1.170928 0,8.190103 4.805309,14.944403 11.008289,15.90847 6.202983,-0.964067 11.008289,-7.718367 11.008289,-15.90847 0,-0.294152 -0.02309,-1.156174 -0.102706,-1.966351 l 0.0043,0 C 22.762101,8.8983116 22.45947,7.471977 22.023181,6.1355082 20.466355,6.6774862 18.82954,6.965252 17.141056,6.965252 c -1.782291,0 -3.507126,-0.3209734 -5.141059,-0.9226104 z"
     id="path13"
     inkscape:connector-curvature="0" /></svg>

<svg width="24" height="30" viewBox="0 0 24 30" fill="none" xmlns="http://www.w3.org/2000/svg">
<path opacity="0.781" d="M11.958 4.67387C11.8877 4.6782 11.8178 4.69309 11.7497 4.71828C10.1973 5.28991 8.55679 5.59648 6.85893 5.59648C5.25036 5.59648 3.69335 5.32207 2.21404 4.80711C1.75527 4.64805 1.28042 4.96794 1.08429 5.56821C0.609751 7.02183 0.279113 8.57667 0.117986 10.2015C0.0389981 11.364 0.020595 11.491 0.0109406 12.3556C0.0109406 21.2934 5.24278 28.5914 11.8915 29.6247C11.9636 29.6359 12.0364 29.6359 12.1085 29.6247C18.7572 28.5914 23.989 21.2934 23.989 12.3556C23.9647 11.5863 23.9453 11.1299 23.882 10.2015C23.7209 8.57661 23.3902 7.02181 22.9157 5.56821C22.7196 4.96794 22.2447 4.64805 21.7859 4.80711C20.3067 5.32208 18.7496 5.59648 17.1411 5.59648C15.4432 5.59648 13.8027 5.28991 12.2502 4.71828C12.155 4.68309 12.0565 4.66812 11.958 4.67387V4.67387Z" fill="#F1EAE4"/>
<path d="M12 6.04263C10.3661 6.64427 8.64123 6.96524 6.85894 6.96524C5.17046 6.96524 3.53369 6.67746 1.97682 6.1355C1.54272 7.46524 1.24163 8.88423 1.09297 10.367H1.09008L1.03511 11.1846C1.02258 11.4783 0.991714 12.0579 0.991714 12.3555C0.991714 20.5457 5.79702 27.3 12 28.264C18.203 27.3 23.0083 20.5457 23.0083 12.3555C23.0083 12.0614 22.9852 11.1994 22.9056 10.3892H22.9099C22.7621 8.8983 22.4595 7.47197 22.0232 6.1355C20.4664 6.67748 18.8295 6.96524 17.1411 6.96524C15.3588 6.96524 13.6339 6.64427 12 6.04263V6.04263Z" fill="#006B54"/>
</svg>
